!!!!SEGMENT: pl-sa--l-1636--117_anonim--tobie-nad-pomysl.krn
!!!cenid: 17xx:824
!!!COM: Anonim
!!!COM-rismid: pe30004985
!!!CDT:
!!!CNT:
!!!OTL: Tobie nad pomysł
!!!PDT:
!!!AGN: Sacred
!!!SMS-siglum: PL-SA
!!!SMS-shelfmark: L 1636
!!!SMS-shelfwork: 117 W
!!!SMS-variant:
!!!SMS-altvar:
!!!NIFC-rismid: 1001100405
!!!URL-scan: http://repozytorium.nifc.pl/skany/pl-sa-nut--l1636
!!!ONB-nifc: 68v, skan 0057, brak zakończenia
!!!AIN: 1 empty
!!!key:
**kern	**kern
*part1	*part1
*staff2	*staff1
*Iempty	*Iempty
*I"	*I"
*I'keyb	*I'keyb
*clefC3	*clefG2
*k[f#]	*k[f#]
*G:	*G:
*M2/2	*M2/2
*met(c|)	*met(c|)
=1	=1
*^	*
*2\right	*2\right	*2\right
!LO:TX:a:t=P:problem=caudy z prawej strony	!	!LO:TX:a:t=P:problem=caudy z prawej strony
!	!	!LO:TX:a:t=P:problem=znaki przykluczowe&colon; f#
!LO:TX:a:t=P::problem=nieczytelna notatka nad nutą&colon; "g" lub "a"	!LO:TX:a:i:t=Tobie nad pomysł	!
1g	2.d\	1dd 1bn 1a
.	4c\	.
*v	*v	*
=2	=2
*	*^
2g 2B/	2dd/	2b\
*	*	*2\left
!LO:TX:a:t=P:problem=brak caudy w górę od 2a	!	!
2a 2A/	2cc/	2cc\ 2g\
=3	=3	=3
*^	*	*
*	*^	*	*
*	*	*	*	*2\right
!LO:N:vis=4.	!	!	!	!
4g 4e/	4ryy	1c	1ee	2cc\
!LO:N:vis=2	!LO:N:vis=2	!	!	!
2.g	2.f#\	.	.	.
.	.	.	.	2cc\
*	*v	*v	*	*
*v	*v	*	*
=4	=4	=4
1a 1d 1G	1dd	1b 1d
=5	=5	=5
1g 1e	1b	4g\
.	.	4e\
.	.	4f#\
.	.	4g\
=6	=6	=6
2A/	2cc#X/	8a\L
.	.	16g\L
.	.	16f#\JJ
.	.	8e\L
.	.	8a\J
2G#X/	2dd/	4f#\
.	.	4g\
=7	=7	=7
*^	*	*
8B/L	1A	2ff-\ 2dd\	4a\
16A/L	.	.	.
16G#X/JJ	.	.	.
8F-/L	.	.	8b-X\L
8G#/J	.	.	8g\J
4f#X/	.	2ryy	8f#/L
.	.	.	16g/L
.	.	.	16f#/JJ
8g/L	.	.	8e\L
!LO:TX:a:t=P:problem=brak kreski taktowej	!	!	!
8e/J	.	.	8a\J
*v	*v	*	*
=8	=8	=8
1ryy	2cc#X/	2g\
.	2ryy	2e\
=9	=9	=9
!	!	!LO:TX:a:t=P:problem=# above
1f#X 1d	1dd 1a	8e#X\L
.	.	16d\L
.	.	16c\JJ
.	.	2.d\
*	*v	*v
=10||	=10||
1d 1B 1G	1dd
=11	=11
*^	*
2.e/	2c\	2ee/
.	2c\	2ee/
4f#X/	.	.
*v	*v	*
=12	=12
1g	1ff#
=13	=13
1c	1ee
!	!LO:TX:a:t=P:problem=brak zakończenia utworu
==	==
*-	*-
!!!system-decoration: {(s1,s2)}
!!!RDF**kern: > = above
!!!RDF**kern: < = below
!!!EED: Mateusz Mrugas
!!!EEV: 2020-12-10
!!!ENC: Tomasz Grochalski
!!!END: 2020-06-14
